symbols/web/rate_review/materialsymbolsoutlined/rate_review_wght500grad200_20px.svg

<svg xmlns="http://www.w3.org/2000/svg" height="20" width="20"><path d="M9.917 11.667h5.375V9.458h-3.167Zm-5.375 0h2.646l5.041-4.979q.188-.146.188-.355 0-.208-.188-.395L10.312 4q-.145-.167-.354-.167-.208 0-.396.188l-5.02 5.021ZM.938 19.25V3.167q0-1.021.708-1.74.708-.719 1.729-.719h13.25q1.021 0 1.729.719.708.719.708 1.74v9.854q0 1-.708 1.719-.708.718-1.729.718H4.729Zm2.437-5.75.479-.479h12.771V3.167H3.375Zm0-10.333V13.5Z"/></svg>

<svg xmlns="http://www.w3.org/2000/svg" height="20" width="20"><path d="M9.917 11.667H15.292V9.458H12.125ZM4.542 11.667H7.188L12.229 6.688Q12.417 6.542 12.417 6.333Q12.417 6.125 12.229 5.938L10.312 4Q10.167 3.833 9.958 3.833Q9.75 3.833 9.562 4.021L4.542 9.042ZM0.938 19.25V3.167Q0.938 2.146 1.646 1.427Q2.354 0.708 3.375 0.708H16.625Q17.646 0.708 18.354 1.427Q19.062 2.146 19.062 3.167V13.021Q19.062 14.021 18.354 14.74Q17.646 15.458 16.625 15.458H4.729ZM3.375 13.5 3.854 13.021H16.625Q16.625 13.021 16.625 13.021Q16.625 13.021 16.625 13.021V3.167Q16.625 3.167 16.625 3.167Q16.625 3.167 16.625 3.167H3.375Q3.375 3.167 3.375 3.167Q3.375 3.167 3.375 3.167ZM3.375 3.167Q3.375 3.167 3.375 3.167Q3.375 3.167 3.375 3.167Q3.375 3.167 3.375 3.167Q3.375 3.167 3.375 3.167V13.021Q3.375 13.021 3.375 13.021Q3.375 13.021 3.375 13.021V13.5Z"/></svg>
